sites/all/themes/sedermera/graphics/investors.svg

<svg xmlns="http://www.w3.org/2000/svg" width="20" height="20" viewbox="0 0 20 20">
  <path fill="#B2B3B6" d="M17 0h-14c-1.5 0-3 1.5-3 3v14c0 1.4 1.5 2.9 3 3h14c1.5 0 3-1.6 3-3v-14c0-1.3-1.6-3-3-3zm1 16c0 .9-1 2-2 2h-12c-1 0-2-1-2-2v-12c0-1 1-2 2-2h12.1c.8 0 1.9 1 1.9 2v12zm-13-4h10v1h-10v-1zm0 2h10v1h-10v-1zm3.1-8.1c0 1.1.9 2 2 2s2-.9 2-2-.9-2-2-2-2 .9-2 2zm3.3 2h-2.6c-1.1 0-1.8 1.4-1.8 2.1v1h6v-1c0-.7-.5-2.1-1.6-2.1z"/>
</svg>

<?xml version="1.0" encoding="utf-8"?>
<!-- Generator: Adobe Illustrator 18.0.0, SVG Export Plug-In . SVG Version: 6.00 Build 0)  -->
<!DOCTYPE svg PUBLIC "-//W3C//DTD SVG 1.1//EN" "http://www.w3.org/Graphics/SVG/1.1/DTD/svg11.dtd">
<svg version="1.1" id="Layer_1" xmlns="http://www.w3.org/2000/svg" xmlns:xlink="http://www.w3.org/1999/xlink" x="0px" y="0px"
	 width="20px" height="20px" viewBox="0 0 20 20" enable-background="new 0 0 20 20" xml:space="preserve">
<path fill="#B2B3B6" d="M17,0H3C1.5,0,0,1.5,0,3v14c0,1.4,1.5,2.9,3,3h14c1.5,0,3-1.6,3-3V3C20,1.7,18.4,0,17,0z M18,16
	c0,0.9-1,2-2,2S4.7,18,4,18c-1,0-2-1-2-2C2,15,2,4.9,2,4c0-1,1-2,2-2c1,0,11.5,0,12.1,0C16.9,2,18,3,18,4C18,5,18,15.1,18,16z M5,12
	h10v1H5V12z M5,14h10v1H5V14z M8.1,5.9c0,1.1,0.9,2,2,2s2-0.9,2-2s-0.9-2-2-2S8.1,4.8,8.1,5.9z M11.4,7.9H8.8C7.7,7.9,7,9.3,7,10v1
	h6v-1C13,9.3,12.5,7.9,11.4,7.9z"/>
</svg>
